X:11
T:Gospel Verse, Easter Sunday
M:6/8
L:1/8
K:F min
V:1 clef=treble
[V:1] (FA)B (cB)A | [M:9/8] BcB (AG)E F3 | [M:6/8] FFG (FE)F | AGF C3 | GAG F3 ||
w: Christ, - our pas- - chal | lamb, has been sa - cri-ficed. | Let us then feast - with | joy in the Lord. | Al-le-lu-ia.||

